dist/icons/svgs/gauge-simple-solid.svg

<svg xmlns="http://www.w3.org/2000/svg" width="24" height="24" fill="currentcolor" class="icon-gauge-simple-solid" viewBox="0 0 24 24">
  <path d="M2 12C2 8.44531 3.875 5.16406 7 3.36719C10.0859 1.57031 13.875 1.57031 17 3.36719C20.0859 5.16406 22 8.44531 22 12C22 15.5938 20.0859 18.875 17 20.6719C13.875 22.4688 10.0859 22.4688 7 20.6719C3.875 18.875 2 15.5938 2 12ZM14.5 15.75C14.5 14.7344 13.8359 13.8359 12.9375 13.4453V5.4375C12.9375 4.92969 12.5078 4.5 12 4.5C11.4531 4.5 11.0625 4.92969 11.0625 5.4375V13.4453C10.125 13.8359 9.5 14.7344 9.5 15.75C9.5 17.1562 10.5938 18.25 12 18.25C13.3672 18.25 14.5 17.1562 14.5 15.75Z"/>
</svg>

<svg xmlns="http://www.w3.org/2000/svg" width="24" height="24" fill="currentColor" class="icon-gauge-simple-solid" viewBox="0 0 24 24">
  <path d="M2 12a9.93 9.93 0 0 1 5-8.633c3.086-1.797 6.875-1.797 10 0 3.086 1.797 5 5.078 5 8.633 0 3.594-1.914 6.875-5 8.672-3.125 1.797-6.914 1.797-10 0C3.875 18.875 2 15.594 2 12m12.5 3.75c0-1.016-.664-1.914-1.562-2.305V5.438A.95.95 0 0 0 12 4.5a.925.925 0 0 0-.937.938v8.007A2.505 2.505 0 0 0 9.5 15.75c0 1.406 1.094 2.5 2.5 2.5 1.367 0 2.5-1.094 2.5-2.5"/>
</svg>
